X:1
T:The Well-Tempered Clavier Part I Fuga XXI
T:BWV 866
T:J. S. Bach
%%score { ( 1 3 ) | 2 }
L:1/8
M:3/4
K:Bb
V:1 treble nm="Harp"
V:3 treble 
V:2 bass 
V:1
 z F GF BD | CA/G/ B/A/G/F/ cE | DB/c/ A/B/c/d/ e/d/c/e/ | d/c/B/c/ A/B/c/d/ e/d/c/e/ | %4
 d>c B/A/B/c/ df- | fB AB =eg- | gA/B/ cc cc | c/B/A/B/ cc cc | c2 z2 z/ d/B/d/ | %9
 e z z2 z/ e/c/e/ | f z z A/B/ c/B/A/c/ | B2 z A/B/ c/B/A/c/ | BB dB fA | G=e/d/ f/e/d/c/ gB | %14
 Af/g/ =e/f/g/a/ b/a/g/b/ | a/g/f/g/ =e/f/g/a/ b/a/g/b/ | a/b/a/g/ _g/=g/a/b/ c'/b/a/c'/ | %17
 b/a/g/a/ _g/=g/a/b/ c'/b/a/c'/ | b/a/g/f/ e/f/g/a/ b/a/g/b/ | a/g/f/e/ d/e/f/g/ a/g/f/a/ | %20
 g/f/e/d/ c/d/e/f/ g/^f/=e/g/ | ^f/=e/d/c/ B/A/B/c/ dg- | gc Bc ^fa- | aB/c/ dd dd | %24
 d/c/B/c/ dd dd | d z z2 z/ e/c/e/ | f z z2 z/ f/d/f/ | g z z =B/c/ d/c/B/d/ | %28
 c z z =B/c/ d/c/B/d/ | ce de ca | bd cd Bg | ac Bc A^f | g/f/=e/d/ ^c/d/e/f/ g/f/e/g/ | %33
 f/e/d/c/ =B/c/d/e/ f/e/d/f/ | e/c/=B/A/ G/F/G/c/ e2- | e_A GA df- | fB cB eG | %37
 Fd/c/ e/d/c/B/ f_A | Ge/f/ d/e/f/g/ _a/g/f/a/ | g/f/e/f/ d/e/f/g/ _a/g/f/a/ | g>f e/d/e/f/ gb- | %41
 be de ac'- | c'd/e/ ff ff | f/e/d/e/ ff ff | f z z A/B/ c/B/A/c/ | B z z A/B/ c/B/A/c/ | %46
 Bg d2 c2 | !fermata!B6 |] %48
V:2
 z6 | z6 | z6 | z6 | z6 | z6 | z6 | z6 | z F, G,F, B,D, | C,A,/G,/ B,/A,/G,/F,/ CE, | %10
 D,B,/C/ A,/B,/C/D/ E/D/C/E/ | D/C/B,/C/ A,/B,/C/D/ E/D/C/E/ | DD,/C,/ B,,/A,,/B,,/C,/ D,F,- | %13
 F,B,, A,,B,, =E,G,- | G,A,,/B,,/ C,C, C,C, | C,/B,,/A,,/B,,/ C,C, C,C, | %16
 F,, z z ^F,/G,/ A,/G,/F,/A,/ | G, z z ^F,/G,/ A,/G,/F,/A,/ | G,D, C,D, G,,E, | F,C, B,,C, F,,D, | %20
 E,B,, A,,B,, E,,C, | D, z z2 z/ G,/E,/G,/ | C, z z2 z/ A,/^F,/A,/ | %23
 D, z z ^F,,/G,,/ A,,/G,,/F,,/A,,/ | G,, z z ^F,,/G,,/ A,,/G,,/F,,/A,,/ | G,,G, B,G, CE, | %26
 D,=B,/A,/ C/B,/A,/G,/ DF, | E,C/D/ =B,/C/D/E/ F/E/D/F/ | E/D/C/D/ =B,/C/D/E/ F/E/D/F/ | %29
 E/D/C/B,/ A,/B,/C/D/ E/D/C/E/ | D/C/B,/A,/ G,/A,/B,/C/ D/C/B,/D/ | %31
 C/B,/A,/G,/ ^F,/G,/A,/B,/ C/B,/A,/C/ | B,G, F,G, =E,2 | D,F, E,F, D,2 | C, z z2 z/ C,/E,/C,/ | %35
 F, z z2 z/ B,,/D,/B,,/ | E, z z2 z/ E,/G,/E,/ | B, z z2 z/ B,/D/B,/ | E z z D,/E,/ F,/E,/D,/F,/ | %39
 E, z z D,/E,/ F,/E,/D,/F,/ | E, z z2 z/ E,/G,/E,/ | F, z z2 z/ F,/A,/F,/ | %42
 B, z z A,/B,/ C/B,/A,/C/ | B, z z A,/B,/ C/B,/A,/C/ | B,/F,/D,/E,/ F,F, F,F, | %45
 F,/E,/D,/E,/ F,F, F,F, | F,/E,/D,/E,/ F,E, F,F,, | !fermata!B,,6 |] %48
V:3
 x6 | x6 | x6 | x6 | z B, DB, FA, | G,=E/D/ F/E/D/C/ G[I:staff +1]B, | %6
[I:staff -1] A,F/G/ =E/F/G/A/ B/A/G/B/ | A/G/F/G/ =E/F/G/A/ B/A/G/B/ | A>G F/E/D/E/ FB- | %9
 BE DE Ac- | cD/E/ FF FF | F/E/D/E/ FF FF | F2 z2 z/[I:staff +1] A,/F,/A,/ | %13
 B,[I:staff -1] z z2[I:staff +1] B,/G,/B,/[I:staff -1] z/ | %14
 C z z[I:staff +1] =E,/F,/ G,/F,/E,/G,/ | F,[I:staff -1] z z[I:staff +1] =E,/G,/ G,/F,/E,/G,/ | %16
 F,/A,/B,/C/ DD DD | D/C/B,/C/ DD DD | D[I:staff -1] z z2 z2 | x6 | x6 | %21
 z[I:staff +1] D ED[I:staff -1] G[I:staff +1]B, | A,^F/=E/ G/F/E/D/[I:staff -1] A[I:staff +1]C | %23
[I:staff -1] B,G/A/ ^F/G/A/B/ c/B/A/c/ | B/A/G/A/ ^F/G/A/B/ c/B/A/c/ | B/c/d/e/ d/c/B/_A/ Gc- | %26
 cF EF =Bd- | dE/F/ GG GG | G/F/E/F/ GG GG | G z z2 z e | f z z2 z d | e z z2 z c | %32
 d[I:staff +1]B, A,B, G,^C | D_A, G,A, F,B, | CC EC[I:staff -1] G[I:staff +1]B, | %35
 _A,D/C/ E/D/C/B,/[I:staff -1] F[I:staff +1]=A, | G,/B,/C/D/ E/D/E/F/[I:staff -1] G[I:staff +1]E | %37
 E_A, G,A, DF- | FG,/_A,/ B,B, B,B, | B,/_A,/G,/A,/ B,B, B,B, | %40
 B,E GE[I:staff -1] B[I:staff +1]B, | CA/G/ B/A/G/F/[I:staff -1] c[I:staff +1]E | %42
[I:staff -1] DB/d/ A/B/c/d/ e/d/c/e/ | dF,/G,/ A,/[I:staff +1]B,/C/D/ E/D/C/E/ | %44
[I:staff -1] dF,/G,/ A,/[I:staff +1]B,/C/D/ E/D/C/E/ | %45
 D/[I:staff -1]C/B,/C/ A,/[I:staff +1]B,/C/D/ E/D/C/E/ |[I:staff -1] DB B2 AE | D6 |] %48

